src/assets/notification-person.svg

<svg width="16" height="20" viewBox="0 0 16 20" fill="none" xmlns="http://www.w3.org/2000/svg">
<path d="M0 17V15H2V8C2 6.61667 2.41667 5.3875 3.25 4.3125C4.08333 3.2375 5.16667 2.53333 6.5 2.2V1.5C6.5 1.08333 6.64583 0.729167 6.9375 0.4375C7.22917 0.145833 7.58333 0 8 0C8.41667 0 8.77083 0.145833 9.0625 0.4375C9.35417 0.729167 9.5 1.08333 9.5 1.5V2.2C10.8333 2.53333 11.9167 3.2375 12.75 4.3125C13.5833 5.3875 14 6.61667 14 8V15H16V17H0ZM8 20C7.45 20 6.97917 19.8042 6.5875 19.4125C6.19583 19.0208 6 18.55 6 18H10C10 18.55 9.80417 19.0208 9.4125 19.4125C9.02083 19.8042 8.55 20 8 20ZM4 15H12V8C12 6.9 11.6083 5.95833 10.825 5.175C10.0417 4.39167 9.1 4 8 4C6.9 4 5.95833 4.39167 5.175 5.175C4.39167 5.95833 4 6.9 4 8V15Z" fill="#1C1B1F"/>
</svg>

<svg width="16" height="20" fill="none" xmlns="http://www.w3.org/2000/svg"><path d="M0 17v-2h2V8c0-1.383.417-2.612 1.25-3.688C4.083 3.237 5.167 2.534 6.5 2.2v-.7c0-.417.146-.77.438-1.063A1.447 1.447 0 018 0c.417 0 .77.146 1.063.438.291.291.437.645.437 1.062v.7c1.333.333 2.417 1.037 3.25 2.112C13.583 5.388 14 6.617 14 8v7h2v2H0zm8 3c-.55 0-1.02-.196-1.412-.587A1.926 1.926 0 016 18h4c0 .55-.196 1.02-.588 1.413A1.926 1.926 0 018 20zm-4-5h8V8c0-1.1-.392-2.042-1.175-2.825C10.042 4.392 9.1 4 8 4s-2.042.392-2.825 1.175C4.392 5.958 4 6.9 4 8v7z" fill="#1C1B1F"/></svg>
